alternatives/kde-colorscheme/64/apps/preferences-system-network-share-windows.svg

<?xml version="1.0" encoding="UTF-8" standalone="no"?>
<!-- Created with Inkscape (http://www.inkscape.org/) -->

<svg
   width="64"
   height="64"
   viewBox="0 0 64 64"
   version="1.1"
   id="svg5"
   inkscape:version="1.2.2 (1:1.2.2+202305151914+b0a8486541)"
   sodipodi:docname="preferences-system-network-share-windows.svg"
   xmlns:inkscape="http://www.inkscape.org/namespaces/inkscape"
   xmlns:sodipodi="http://sodipodi.sourceforge.net/DTD/sodipodi-0.dtd"
   xmlns="http://www.w3.org/2000/svg"
   xmlns:svg="http://www.w3.org/2000/svg">
  <sodipodi:namedview
     id="namedview7"
     pagecolor="#ffffff"
     bordercolor="#000000"
     borderopacity="0.25"
     inkscape:showpageshadow="2"
     inkscape:pageopacity="0.0"
     inkscape:pagecheckerboard="0"
     inkscape:deskcolor="#d1d1d1"
     inkscape:document-units="px"
     showgrid="false"
     inkscape:zoom="12.59375"
     inkscape:cx="31.960298"
     inkscape:cy="32"
     inkscape:window-width="1920"
     inkscape:window-height="1008"
     inkscape:window-x="0"
     inkscape:window-y="0"
     inkscape:window-maximized="1"
     inkscape:current-layer="svg5"
     showguides="false" />
  <defs
     id="defs2">
    <style
       id="current-color-scheme"
       type="text/css">
         .ColorScheme-Text { color:#232629; }
         .ColorScheme-Highlight { color:#3daee9; }
     </style>
  </defs>
  <path
     d="M 26,5 C 7.797619,5 4,8.879634 4,27 V 39 C 4,57.120366 7.797619,61 26,61 H 38 C 56.20238,61 60,57.120366 60,39 V 27 C 60,8.879634 56.20238,5 38,5"
     style="opacity:0.2;fill:#000000;stroke-width:2;stroke-linecap:round;stroke-linejoin:round"
     id="path563" />
  <path
     id="path530"
     style="fill:currentColor;fill-opacity:1;stroke-width:2;stroke-linecap:round;stroke-linejoin:round"
     class="ColorScheme-Highlight"
     d="M 26 4 C 7.7976372 4 4 7.8796521 4 26 L 4 38 C 4 56.120348 7.7976372 60 26 60 L 38 60 C 56.202364 60 60 56.120348 60 38 L 60 26 C 60 7.8796521 56.202364 4 38 4 L 26 4 z " />
  <path
     id="path1373"
     style="opacity:0.6;fill:currentColor;stroke-width:2;stroke-linecap:round"
     class="ColorScheme-Text"
     d="M 45 12 L 45 15 L 18.03125 15 C 16.422552 14.997 15 16.391303 15 18 L 15 33 C 15 34.052419 15.947581 34.99773 17 35 L 43 35 L 43 43 L 19 43 L 19 40 L 11 46 L 19 52 L 19 49 L 46 49 C 47.608698 49.003 49 47.608698 49 46 L 49 31 C 49 29.947581 48.052419 29 47 29 L 21 29 L 21 20.96875 L 45 21.03125 L 45 24 L 53 18 L 45 12 z " />
</svg>

<?xml version="1.0" encoding="UTF-8" standalone="no"?>
<!-- Created with Inkscape (http://www.inkscape.org/) -->

<svg
   width="64"
   height="64"
   viewBox="0 0 64 64"
   version="1.1"
   id="svg5"
   inkscape:version="1.2.1 (9c6d41e410, 2022-07-14)"
   sodipodi:docname="preferences-system-network-share-windows.svg"
   xmlns:inkscape="http://www.inkscape.org/namespaces/inkscape"
   xmlns:sodipodi="http://sodipodi.sourceforge.net/DTD/sodipodi-0.dtd"
   xmlns:xlink="http://www.w3.org/1999/xlink"
   xmlns="http://www.w3.org/2000/svg"
   xmlns:svg="http://www.w3.org/2000/svg">
  <sodipodi:namedview
     id="namedview7"
     pagecolor="#ffffff"
     bordercolor="#000000"
     borderopacity="0.25"
     inkscape:showpageshadow="2"
     inkscape:pageopacity="0.0"
     inkscape:pagecheckerboard="0"
     inkscape:deskcolor="#d1d1d1"
     inkscape:document-units="px"
     showgrid="false"
     inkscape:zoom="12.375"
     inkscape:cx="32"
     inkscape:cy="32"
     inkscape:window-width="1920"
     inkscape:window-height="1004"
     inkscape:window-x="0"
     inkscape:window-y="0"
     inkscape:window-maximized="1"
     inkscape:current-layer="svg5"
     showguides="false" />
  <defs
     id="defs2">
    <linearGradient
       inkscape:collect="always"
       xlink:href="#linearGradient3147"
       id="linearGradient4780"
       x1="30"
       y1="30"
       x2="2"
       y2="2"
       gradientUnits="userSpaceOnUse"
       gradientTransform="scale(2)" />
    <linearGradient
       inkscape:collect="always"
       id="linearGradient3147">
      <stop
         style="stop-color:#41bbff;stop-opacity:1;"
         offset="0"
         id="stop3143" />
      <stop
         style="stop-color:#0091f9;stop-opacity:1;"
         offset="1"
         id="stop3145" />
    </linearGradient>
  </defs>
  <path
     d="M 26,5 C 7.797619,5 4,8.879634 4,27 V 39 C 4,57.120366 7.797619,61 26,61 H 38 C 56.20238,61 60,57.120366 60,39 V 27 C 60,8.879634 56.20238,5 38,5"
     style="opacity:0.2;fill:#000000;stroke-width:2;stroke-linecap:round;stroke-linejoin:round"
     id="path563" />
  <path
     id="path530"
     style="fill:url(#linearGradient4780);fill-opacity:1.0;stroke-width:2;stroke-linecap:round;stroke-linejoin:round"
     d="M 26 4 C 7.7976372 4 4 7.8796521 4 26 L 4 38 C 4 56.120348 7.7976372 60 26 60 L 38 60 C 56.202364 60 60 56.120348 60 38 L 60 26 C 60 7.8796521 56.202364 4 38 4 L 26 4 z " />
  <path
     d="m 45,12 v 3 H 18.03125 C 16.42255,14.997 15,16.391301 15,18 v 15 c 0,1.05242 0.94758,1.99773 2,2 l 26,-10e-7 V 43 H 19 v -3 l -8,6 8,6 v -3 h 27 c 1.6087,0.003 3,-1.3913 3,-3 V 31 c 0,-1.05242 -0.94758,-2 -2,-2 l -26,-1e-6 V 20.96875 l 24,0.0625 V 24 l 8,-6"
     style="color:#000000;font-style:normal;font-variant:normal;font-weight:normal;font-stretch:normal;font-size:medium;line-height:normal;font-family:Sans;-inkscape-font-specification:Sans;text-indent:0;text-align:start;text-decoration:none;text-decoration-line:none;letter-spacing:normal;word-spacing:normal;text-transform:none;writing-mode:lr-tb;direction:ltr;baseline-shift:baseline;text-anchor:start;display:inline;overflow:visible;visibility:visible;fill:#ffffff;fill-opacity:1;stroke:none;stroke-width:2;marker:none;enable-background:accumulate"
     id="path8016"
     sodipodi:nodetypes="cccsscccccccccsscccccc" />
</svg>
